src/16/actions/view-pim-tasks-pending.svg

<svg xmlns="http://www.w3.org/2000/svg" viewBox="0 0 16 16">
  <defs id="defs3051">
    <style type="text/css" id="current-color-scheme">
      .ColorScheme-Text {
        color:#5d656b;
      }
      .ColorScheme-NegativeText {
        color:#da4453;
      }
      </style>
  </defs>
  <g
     transform="translate(-421.71429,-531.79074)">
    <path
       style="fill:currentColor;fill-opacity:1;stroke:none" 
       d="M 2 2 L 2 14 L 11 14 L 11 13 L 3 13 L 3 5 L 13 5 L 13 8 L 14 8 L 14 2 L 12 2 L 12 4 L 10 4 L 10 2 L 6 2 L 6 4 L 4 4 L 4 2 L 2 2 z M 10.335938 6.5 L 7.1875 10.109375 L 5.6621094 8.5566406 L 5 9.2324219 L 7.2265625 11.5 L 11 7.1777344 L 10.335938 6.5 z "
       transform="translate(421.71429,531.79074)"
     class="ColorScheme-Text"
       id="rect4449" />
    <path
       style="fill:currentColor;fill-opacity:1;stroke:none" 
     class="ColorScheme-NegativeText"
     d="M 12 9 L 12 12 L 13 12 L 13 9 L 12 9 z M 12 13 L 12 14 L 13 14 L 13 13 L 12 13 z "
       transform="translate(421.71429,531.79074)"
       id="rect4177" />
  </g>
</svg>

<svg xmlns="http://www.w3.org/2000/svg" viewBox="0 0 16 16"><g fill="currentColor"><path d="M2 2v12h9v-1H3V5h10v3h1V2h-2v2h-2V2H6v2H4V2H2zm8.336 4.5l-3.149 3.61-1.525-1.553L5 9.232 7.227 11.5 11 7.178l-.664-.678z" color="#5d656b"/><path d="M12 9v3h1V9h-1zm0 4v1h1v-1h-1z" color="#da4453"/></g></svg>
